data/icons/sc-actions-kdenlive-hide-video-effects.svg

<?xml version="1.0" encoding="UTF-8" standalone="no"?>
<svg
   xmlns:dc="http://purl.org/dc/elements/1.1/"
   xmlns:cc="http://creativecommons.org/ns#"
   xmlns:rdf="http://www.w3.org/1999/02/22-rdf-syntax-ns#"
   xmlns:svg="http://www.w3.org/2000/svg"
   xmlns="http://www.w3.org/2000/svg"
   version="1.1"
   id="svg2"
   height="16"
   width="16">
  <defs
     id="defs4">
    <linearGradient
       id="linearGradient7864">
      <stop
         id="stop7866"
         offset="0"
         style="stop-color:#fdfeff;stop-opacity:1;" />
      <stop
         id="stop7868"
         offset="1"
         style="stop-color:#fdfeff;stop-opacity:0.22368421;" />
    </linearGradient>
    <linearGradient
       id="linearGradient7847">
      <stop
         id="stop7849"
         offset="0"
         style="stop-color:#8ace62;stop-opacity:1;" />
      <stop
         id="stop7851"
         offset="1"
         style="stop-color:#3e8414;stop-opacity:1;" />
    </linearGradient>
  </defs>
  <metadata
     id="metadata7">
    <rdf:RDF>
      <cc:Work
         rdf:about="">
        <dc:format>image/svg+xml</dc:format>
        <dc:type
           rdf:resource="http://purl.org/dc/dcmitype/StillImage" />
        <dc:title></dc:title>
      </cc:Work>
    </rdf:RDF>
  </metadata>
  <g
     transform="translate(-286.28571,-144.36218)"
     id="layer1">
    <rect
       y="146.91576"
       x="286.78571"
       height="10.870536"
       width="14.852678"
       id="rect3378"
       style="fill:#ffffff;fill-opacity:0.50196081;stroke:none;stroke-opacity:1" />
    <path
       id="rect4172"
       transform="translate(286.28571,144.36218)"
       d="M 1.0019531 3.0527344 L 1.0019531 12.978516 L 14.927734 12.978516 L 14.927734 3.0527344 L 1.0019531 3.0527344 z M 2.0214844 4.0234375 L 3.7226562 4.0234375 L 3.7226562 5.7226562 L 2.0214844 5.7226562 L 2.0214844 4.0234375 z M 5.4941406 4.0234375 L 7.1933594 4.0234375 L 7.1933594 5.7226562 L 5.4941406 5.7226562 L 5.4941406 4.0234375 z M 8.9648438 4.0234375 L 10.666016 4.0234375 L 10.666016 5.7226562 L 8.9648438 5.7226562 L 8.9648438 4.0234375 z M 12.4375 4.0234375 L 14.136719 4.0234375 L 14.136719 5.7226562 L 12.4375 5.7226562 L 12.4375 4.0234375 z M 2.0351562 10.25 L 3.7363281 10.25 L 3.7363281 11.951172 L 2.0351562 11.951172 L 2.0351562 10.25 z M 5.5078125 10.25 L 7.2070312 10.25 L 7.2070312 11.951172 L 5.5078125 11.951172 L 5.5078125 10.25 z M 8.9785156 10.25 L 10.679688 10.25 L 10.679688 11.951172 L 8.9785156 11.951172 L 8.9785156 10.25 z M 12.451172 10.25 L 14.150391 10.25 L 14.150391 11.951172 L 12.451172 11.951172 L 12.451172 10.25 z "
       style="opacity:1;fill:#4d4d4d;fill-opacity:1;fill-rule:nonzero;stroke:none;stroke-width:0.5;stroke-linecap:round;stroke-linejoin:round;stroke-miterlimit:4;stroke-dasharray:none;stroke-dashoffset:0;stroke-opacity:1" />
    <path
       id="path4180"
       d="M 286.90724,157.66331 301.62555,146.9403"
       style="fill:none;fill-rule:evenodd;stroke:#b80000;stroke-width:1.60000002;stroke-linecap:butt;stroke-linejoin:miter;stroke-miterlimit:4;stroke-dasharray:none;stroke-opacity:1" />
  </g>
</svg>

<svg xmlns="http://www.w3.org/2000/svg" height="16" width="16">
    <path fill="#fff" fill-opacity=".502" d="M.5 2.554h14.853v10.87H.5z"/>
    <path d="M1.002 3.053v9.926h13.926V3.052H1.002zm1.02.97h1.7v1.7h-1.7v-1.7zm3.472 0h1.7v1.7h-1.7v-1.7zm3.47 0h1.702v1.7h-1.7v-1.7zm3.473 0h1.7v1.7h-1.7v-1.7zM2.036 10.25h1.7v1.7h-1.7v-1.7zm3.473 0h1.7v1.7h-1.7v-1.7zm3.47 0h1.702v1.7h-1.7v-1.7zm3.473 0h1.7v1.7h-1.7v-1.7z" fill="#4d4d4d"/>
    <path d="M.622 13.3L15.34 2.58" fill="none" stroke="#b80000" stroke-width="1.6"/>
</svg>
